Catalina-light/actions/16/go-jump-declaration.svg

<svg xmlns="http://www.w3.org/2000/svg" width="16" height="16" viewBox="0 0 16 16">
 <defs>
  <style id="current-color-scheme" type="text/css">
   .ColorScheme-Text { color:#5c616c; } .ColorScheme-Highlight { color:#5294e2; }
  </style>
 </defs>
 <path style="fill:currentColor" class="ColorScheme-Text" d="M 1 1.0039062 L 1 15.003906 L 3 15.003906 L 3 7.0039062 L 9 7.0039062 L 9 2.0039062 L 3 2.0039062 L 3 1.0039062 L 1 1.0039062 z M 13 2.0039062 L 12 3.0039062 L 11 4.0039062 L 13 6.0039062 L 13 4.71875 C 13.623984 5.6619264 14 6.7825368 14 8.0039062 C 14 11.327823 11.323917 13.003906 8 13.003906 L 8 14.003906 C 11.877903 14.003906 15 11.881809 15 8.0039062 C 15 6.094854 14.231969 4.3799623 13 3.1210938 L 13 2.0039062 z"/>
</svg>

<svg width="16" height="16" viewBox="0 0 16 16" xmlns="http://www.w3.org/2000/svg">
<defs>
<style id="current-color-scheme" type="text/css">.ColorScheme-Text { color:#5c616c; } .ColorScheme-Highlight { color:#5294e2; }</style>
</defs>
<path class="ColorScheme-Text" d="m1 1.0039v14h2v-8h6v-5h-6v-1h-2zm12 1-2 2 2 2v-1.2852c0.62398 0.94318 1 2.0638 1 3.2852 0 3.3239-2.6761 5-6 5v1c3.8779 0 7-2.1221 7-6 0-1.9091-0.76803-3.6239-2-4.8828v-1.1172z" fill="currentColor"/>
</svg>
